public/new/iocn6.svg

<svg fill="none" height="80" viewBox="0 0 80 80" width="80" xmlns="http://www.w3.org/2000/svg" xmlns:xlink="http://www.w3.org/1999/xlink"><linearGradient id="a"><stop offset="0" stop-color="#34c796"/><stop offset="1" stop-color="#0b7a55"/></linearGradient><linearGradient id="b" gradientUnits="userSpaceOnUse" x1="40" x2="40" xlink:href="#a" y1="0" y2="80"/><linearGradient id="c" gradientUnits="userSpaceOnUse" x1="39.9902" x2="39.9902" xlink:href="#a" y1="20.478" y2="59.3477"/><circle cx="40" cy="40" r="39" stroke="url(#b)" stroke-width="2"/><path d="m52.6438 24.7652-10.6334-3.9827c-1.102-.406-2.9-.406-4.002 0l-10.6333 3.9827c-2.0493.7733-3.712 3.1707-3.712 5.3553v15.66c0 1.566 1.0247 3.6347 2.2813 4.5627l10.6334 7.946c1.8753 1.4113 4.9493 1.4113 6.8246 0l10.6334-7.946c1.2566-.9473 2.2813-2.9967 2.2813-4.5627v-15.66c.0193-2.1846-1.6433-4.582-3.6733-5.3553zm-5.916 10.8267-8.3134 8.3133c-.29.29-.6573.4253-1.0246.4253-.3674 0-.7347-.1353-1.0247-.4253l-3.0933-3.132c-.5607-.5607-.5607-1.4887 0-2.0493.5606-.5607 1.4886-.5607 2.0493 0l2.088 2.088 7.2887-7.2887c.5606-.5607 1.4886-.5607 2.0493 0s.5607 1.508-.0193 2.0687z" fill="url(#c)"/></svg>

<svg width="80" height="80" viewBox="0 0 80 80" fill="none" xmlns="http://www.w3.org/2000/svg">
<circle cx="40" cy="40" r="39" stroke="url(#paint0_linear_206_3824)" stroke-width="2"/>
<path d="M52.6438 24.7652L42.0104 20.7825C40.9084 20.3765 39.1104 20.3765 38.0084 20.7825L27.3751 24.7652C25.3258 25.5385 23.6631 27.9359 23.6631 30.1205V45.7805C23.6631 47.3465 24.6878 49.4152 25.9444 50.3432L36.5778 58.2892C38.4531 59.7005 41.5271 59.7005 43.4024 58.2892L54.0358 50.3432C55.2924 49.3959 56.3171 47.3465 56.3171 45.7805V30.1205C56.3364 27.9359 54.6738 25.5385 52.6438 24.7652ZM46.7278 35.5919L38.4144 43.9052C38.1244 44.1952 37.7571 44.3305 37.3898 44.3305C37.0224 44.3305 36.6551 44.1952 36.3651 43.9052L33.2718 40.7732C32.7111 40.2125 32.7111 39.2845 33.2718 38.7239C33.8324 38.1632 34.7604 38.1632 35.3211 38.7239L37.4091 40.8119L44.6978 33.5232C45.2584 32.9625 46.1864 32.9625 46.7471 33.5232C47.3078 34.0839 47.3078 35.0312 46.7278 35.5919Z" fill="url(#paint1_linear_206_3824)"/>
<defs>
<linearGradient id="paint0_linear_206_3824" x1="40" y1="0" x2="40" y2="80" gradientUnits="userSpaceOnUse">
<stop stop-color="#34C796"/>
<stop offset="1" stop-color="#0B7A55"/>
</linearGradient>
<linearGradient id="paint1_linear_206_3824" x1="39.9902" y1="20.478" x2="39.9902" y2="59.3477" gradientUnits="userSpaceOnUse">
<stop stop-color="#34C796"/>
<stop offset="1" stop-color="#0B7A55"/>
</linearGradient>
</defs>
</svg>
